www/assets/icons/directions.svg

<svg width="24" height="24" viewBox="0 0 24 24" xmlns="http://www.w3.org/2000/svg" fill='currentColor'><path d="M21.4112 10.585L13.4212 2.585C12.6412 1.805 11.3712 1.805 10.5912 2.585L2.58125 10.585C1.80125 11.365 1.80125 12.635 2.58125 13.415L10.5912 21.415C11.3712 22.195 12.6412 22.195 13.4212 21.415L21.4112 13.415C22.2012 12.625 22.2012 11.365 21.4112 10.585ZM13.5012 14.495V11.995H10.0012V14.995H8.00125V10.995C8.00125 10.445 8.45125 9.995 9.00125 9.995H13.5012V7.495L17.0012 10.995L13.5012 14.495Z"/></svg>

<svg xmlns="http://www.w3.org/2000/svg" width="24" height="24" viewBox="0 0 24 24" fill='currentColor'><path d="m21.411 10.585-7.99-8c-.78-.78-2.05-.78-2.83 0l-8.01 8c-.78.78-.78 2.05 0 2.83l8.01 8c.78.78 2.05.78 2.83 0l7.99-8c.79-.79.79-2.05 0-2.83m-7.91 3.91v-2.5h-3.5v3h-2v-4c0-.55.45-1 1-1h4.5v-2.5l3.5 3.5z"/></svg>
